X:1
T:S'io ve dico ca sete la chiù bella
T:Orlando di Lasso (c. 1532 - 1594)
T:S'io ve dico ca sete la chiù bella
T:Public Domain
T:From 1582 publication of Libro de villanelle, moresche, et altre canzoni in Anversa
T:Public Domain
T:Public Domain
C:Orlando di Lasso (c. 1532 - 1594)
Z:Public Domain
%%score [ 1 2 3 4 ]
L:1/8
M:4/4
K:F
V:1 treble nm="Canto" snm="S."
V:2 treble nm="Alto" snm="A."
V:3 treble-8 transpose=-12 nm="Tenor" snm="T."
V:4 bass nm="Bass" snm="B."
V:1
 =B4 B4 | c4 d4 | _e4 d2 d2 | c2 c4 =B2 | c8 | =B4 B4 | c4 d4 | _e4 d2 d2 | c2 c4"^§" =B2 | %9
w: S'io ve|di- co|ca se- te|la chiù bel-|la,|S'io ve|di- co|ca se- te|la chiù bel-|
 c4 z2 c2 | d2 d2 c4 | c2 c2 B2 A2 | B4 G4 | B6 A2 | G2 G4"^#" ^F2 | G4 z2 c2 | d2 d2 c4 | %17
w: la, Di|tut- te bel-|le di tut- te|bel- l'al|mon- do|mai son na-|te, Di|tut- te bel-|
 c2 c2 B2 A2 | B4 G4 | B6 A2 | G2 G4"^#" ^F2 | G4 =B4 | c6 c2 | =B2 B2 c4 | A4 !courtesy!_B2 B2 | %25
w: le di tut- te|bel- l'al|mon- do|mai son na-|te, Di-|co lo|ver' e voi,|Di- co lo|
 G2 G2 G4 | F4 F2 F2 | E2 E2 F2 B2 | A2 G4"^#" ^F2 | G4 =B4 | c6 c2 | =B2 B2 c4 | %32
w: ver' e voi,|Di- co lo|ver' e voi ve|ne sde- gna-|te, Di-|co lo|ver' e voi,|
 A4 !courtesy!_B2 B2 | G2 G2 G4 | F4 F2 F2 | E2 E2 F2 B2 | A2 G4"^#" ^F2 | G8 |] %38
w: Di- co lo|ver' e voi,|Di- co lo|ver' e voi ve|ne sde- gna-|te!|
V:2
 G4 G4 | G4 B4 | B4 B2 B2 | G2 A2 G4 | G8 | G4 G4 | G4 B4 | B4 B2 B2 | G2 A2 G4 | G4 z2 A2 | %10
w: S'io ve|di- co|ca se- te|la chiù bel-|la,|S'io ve|di- co|ca se- te|la chiù bel-|la, Di|
 B2 B2 G4 | A2 A2 G2 F2 | G4 E4 | F6 F2 | D2 _E2 D4 | D4 z2 A2 | B2 B2 G4 | A2 A2 G2 F2 | G4 E4 | %19
w: tut- te bel-|le di tut- te|bel- l'al|mon- do|mai son na-|te, Di|tut- te bel-|le di tut- te|bel- l'al|
 F6 F2 | D2 _E2 D4 | D8 | A4 A2 A2 | G2 G2 G4 | F4 F2 F2 | _E4 E4 | D2 D2 D2 D2 | C2 C2 A,2 F2 | %28
w: mon- do|mai son na-|te,|Di- co lo|ver' e voi,|Di- co lo|ver' e|voi, Di- co lo|ver' e voi ve|
 F2 _E2 D4 | D8 | A4 A2 A2 | G2 G2 G4 | F4 F2 F2 | _E4 E4 | D2 D2 D2 D2 | C2 C2 A,2 F2 | %36
w: ne sde- gna-|te,|Di- co lo|ver' e voi,|Di- co lo|ver' e|voi, Di- co lo|ver' e voi ve|
 F2 _E2 D4 | D8 |] %38
w: ne sde- gna-|te!|
V:3
 d4 d4 | e4 f4 | g4 f2 g2 | e2 f2 d4 | e8 | d4 d4 | e4 f4 | g4 f2 g2 | e2 f2 d4 | e4 z2 f2 | %10
w: S'io ve|di- co|ca se- te|la chiù bel-|la,|S'io ve|di- co|ca se- te|la chiù bel-|la, Di|
 f2 f2 e4 | f2 f2 d2 c2 | d4 c4 | d6 c2 | =B2 c2 A4 | =B4 z2 f2 | f2 f2 e4 | f2 f2 d2 c2 | d4 c4 | %19
w: tut- te bel-|le di tut- te|bel- l'al|mon- do|mai son na-|te, Di|tut- te bel-|le di tut- te|bel- l'al|
 d6 c2 | =B2 c2 A4 | =B4 z2 g2 | e2 e2 f2 f2 | d4 _e4 | c2 c2 d2 d2 | B4 c4 | A2 A2 B2 B2 | G4 d4 | %28
w: mon- do|mai son na-|te, Di-|co lo ver' e|voi, Di-|co lo ver' e|voi, Di-|co lo ver' e|voi ve|
 c2 c2 A4 | =B4 z2 g2 | e2 e2 f2 f2 | d4 _e4 | c2 c2 d2 d2 | B4 c4 | A2 A2 B2 B2 | G4 d4 | %36
w: ne sde- gna-|te, Di-|co lo ver' e|voi, Di-|co lo ver' e|voi, Di-|co lo ver' e|voi ve|
 c2 c2 A4 | =B8 |] %38
w: ne sde- gna-|te!|
V:4
 G,4 G,4 | C4 B,4 | _E,4 B,2 G,2 | C2 F,2 G,4 | C,8 | G,4 G,4 | C4 B,4 | _E,4 B,2 G,2 | %8
w: S'io ve|di- co|ca se- te|la chiù bel-|la,|S'io ve|di- co|ca se- te|
 C2 F,2 G,4 | C4 z2 F,2 | B,2 B,2 C4 | F,2 F,2 G,2 A,2 | G,4 C,4 | B,,6 F,2 | G,2 C,2 D,4 | %15
w: la chiù bel-|la, Di|tut- te bel-|le di tut- te|bel- l'al|mon- do|mai son na-|
 G,4 z2 F,2 | B,2 B,2 C4 | F,2 F,2 G,2 A,2 | G,4 C,4 | B,,6 F,2 | G,2 C,2 D,4 | G,8 | A,4 F,2 F,2 | %23
w: te, Di|tut- te bel-|le di tut- te|bel- l'al|mon- do|mai son na-|te,|Di- co lo|
 G,2 G,2 C,4 | F,4 B,,2 B,,2 |"^b" _E,2"^b" E,2 C,4 | D,4 B,,2 B,,2 | C,2 C,2 D,2 B,,2 | %28
w: ver' e voi,|Di- co lo|ver' e voi,|Di- co lo|ver' e voi ve|
 F,2 C,2 D,4 | G,8 | A,4 F,2 F,2 | G,2 G,2 C,4 | %32
w: ne sde- gna-|te,|Di- co lo|ver' e voi,|
 F,4"^Text:S'io ve dico ca sete la chiù bella,Di tutte bell'al mondo mai son nate,Dico lo ver'e voi ve sdegnate!" B,,2 B,,2 | %33
w: Di- co lo|
"^b" _E,2"^b" E,2 C,4 | D,4 B,,2 B,,2 | %35
w: ver' e voi,|Di- co lo|
"^Translation:If I tell you you are the most beautifulof all the beauties in the world,I'm telling the truth, and you hold it against me!" C,2 C,2 D,2 B,,2 | %36
w: ver e voi ve|
 F,2 C,2 D,4 | G,8 |] %38
w: ne sde- gna-|te!|

